X:3776
L:1/16
Q:1/4=100
M:2/4
K:A
 A2a2 a2gf | e2e2 Te3d/e/ | f2d2 Td3c/d/ | e2c2 Tc4 | d2B2 BcdB | c2a2a2b2 |{a} g2fe{g} f2e^d | 
 e8 |:

